X: 28302
T: Mt Oberon's Summit
R: slip jig
M: 9/8
K: Aminor
|:ea2 age dcB|AAA cAA EAB|cBA AGE GED|EAB cBA cBA|
EAg age dcB|AAA cAA EAB|cBA AGE GED|A,DE FDE E3:|
|:A,DE FED cBA|AGA F3E3|AGA cBA GED|
A,DE FED cBA|AGA F3E3|1 AGA cBA GED:|2 EAB cBA cBA||
|:eaa age dcB|AGAF3E3|DEF E3D3|A,DE FED FED|
EAg age age|aaa c'aa eab|c'ba age ged|Ade fde e3:|

